icons/svg/book-minus.svg

﻿<?xml version="1.0" encoding="utf-8"?>
<!DOCTYPE svg PUBLIC "-//W3C//DTD SVG 1.1//EN" "http://www.w3.org/Graphics/SVG/1.1/DTD/svg11.dtd">
<svg xmlns="http://www.w3.org/2000/svg" xmlns:xlink="http://www.w3.org/1999/xlink" version="1.1" baseProfile="full" width="24" height="24" viewBox="0 0 24.00 24.00" enable-background="new 0 0 24.00 24.00" xml:space="preserve">
	<path fill="#050708" fill-opacity="1" stroke-width="0.2" stroke-linejoin="round" d="M 17.9994,21.998L 5.99938,21.998C 4.89586,21.998 3.99938,21.1021 3.99938,19.998L 3.99938,3.99805C 3.99938,2.89404 4.89586,1.99805 5.99938,1.99805L 6.99938,1.99805L 6.99938,8.99805L 9.49938,7.49805L 11.9994,8.99805L 11.9994,1.99805L 17.9994,1.99805C 19.1044,1.99805 19.9994,2.89404 19.9994,3.99805L 19.9994,19.998C 19.9994,21.1021 19.1044,21.998 17.9994,21.998 Z M 18,18L 18,16L 12,16L 12,18L 18,18 Z "/>
</svg>

<svg xmlns="http://www.w3.org/2000/svg" version="1.1" baseProfile="full" width="24" height="24" viewBox="0 0 24.00 24.00" xml:space="preserve"><path fill="#050708" fill-opacity="1" stroke-width=".2" stroke-linejoin="round" d="M18 21.998H6c-1.104 0-2-.896-2-2v-16c0-1.104.896-2 2-2h1v7l2.5-1.5 2.5 1.5v-7h6c1.104 0 2 .896 2 2v16c0 1.104-.896 2-2 2zM18 18v-2h-6v2h6z"/></svg>
